X:1
T:Morgan, CMD
T:Morgan, CMD
T:Irvin James Morgan, 1895
T:Public Domain Courtesy of the Cyber Hymnal™
C:Irvin James Morgan, 1895
Z:Public Domain
Z:Courtesy of the Cyber Hymnal™
%%score ( 1 2 ) ( 3 4 )
L:1/8
Q:1/4=115
M:3/4
K:Bb
V:1 treble 
V:2 treble 
V:3 bass 
V:4 bass 
V:1
 [DF]2 [EG]2 [EF]2 | B4 [GB]2 | (c2 e2) [FA]2 | B6 | [FB]2 [Ec]2 [Fd]2 | e4 [_GB]2 | [Fd]6 | %7
 F2 [Ac]2 [^G=B]2 | [Ac]4 F2 | [Ac]4 [^G=B]2 | c6 | [Bd]2 [GB]2 [FA]2 | G4 [_EA]2 | F6 | %14
 F2 [DG]2 [EG]2 | G4 [EB]2 | (A2 G2) [EF]2 | [DB]6 | [EG]2 [GB]2 [Bd]2 | ([Ac]2 [GB]2) [^FA]2 | %20
 G6 | [Ge]2 [_Ad]2 [G=B]2 | [Gc]4 G2 | ([Ge]2 [_Ad]2) [G=B]2 | c4 G2 | [FB]4 [EB]2 | %26
 (B2 c2) [FA]2 | [FB]6 |] %28
V:2
 x6 | (D2 F2) x2 | G4 x2 | (F2 D2 E2) | x6 | (E2 _G2) x2 | x6 | F2 x4 | x4 F2 | x6 | (A2 G2 F2) | %11
 x6 | (F2 =ED) x2 | F6 | F2 x4 | (F2 E2) x2 | E4 x2 | x6 | x6 | x6 | G6 | x6 | x4 G2 | x6 | %24
 (G2 F2) G2 | x6 | F4 x2 | x6 |] %28
V:3
 [B,,B,]2 B,2 [C,A,]2 | ([B,,B,]2 [B,D]2) [G,D]2 | E4 [F,E]2 | (D2 B,2 C2) | %4
 [B,D]2 [A,C]2 [_A,_C]2 | B,4 [E,E]2 | B,6 | F,2 [F,E]2 [F,D]2 | (E2 C2) [F,A,]2 | [F,E]4 [F,D]2 | %10
 E6 | [B,D]2 [B,,D]2 [=B,,D]2 | (D2 G,2) [C,B,]2 | [F,A,]6 | [F,A,]2 [F,B,]2 [E,B,]2 | %15
 ([D,=B,]2 [C,C]2) [C,D]2 | (C2 B,2) [F,A,]2 | G,6 | [E,B,]2 [E,E]2 [B,,D]2 | %19
 ([C,E]2 [D,D]2) [D,E]2 | [G,B,]6 | [C,C]2 [F,=B,]2 [G,D]2 | ([E,C]2 [C,E]2) G,2 | %23
 ([C,C]2 [F,=B,]2) [G,D]2 | ([E,C]2 [D,D]2) [C,E]2 | [F,D]2 [D,B,]2 [G,C]2 | (D2 E2) (CE) | %27
 [B,,D]6 |] %28
V:4
 x2 (E,D,) x2 | x6 | (E,2 C,2) x2 | B,,6 | x6 | (G,2 E,2) x2 | B,6 | F,2 x4 | F,4 x2 | x6 | %10
 (F,2 G,2 A,2) | x6 | C,4 x2 | x6 | x6 | x6 | F,4 x2 | G,6 | x6 | x6 | x6 | x6 | x4 G,2 | x6 | x6 | %25
 x6 | F,4 F,,2 | x6 |] %28

